exports/number-injured-from-disasters_v1_850x600.svg

<svg xmlns="http://www.w3.org/2000/svg" version="1.1" style="background-color:#fff;-webkit-font-smoothing:antialiased" width="850" height="600" font-family="'Helvetica Neue',Helvetica,Arial,sans-serif" font-size="18" text-rendering="optimizeLegibility"><g class="ChartTab"><g class="HeaderView"><g opacity=".8" transform="matrix(.31 0 0 .31 770 15)"><a xmlns:xlink="http://www.w3.org/1999/xlink" xlink:href="https://ourworldindata.org" target="_blank"><g><path fill="#1B2543" d="M0 0h211.2v130.1H0z"/><path fill="#E63912" d="M0 112.2h211.2v17.9H0z"/><g><path fill="none" d="M1.2 12.3h210.2v99.2H1.2z"/><path fill="#FFF" d="M37.8 32.2c0 12.7-7.7 19.4-17.1 19.4-9.7 0-16.6-7.5-16.6-18.7 0-11.7 7.3-19.3 17.1-19.3 10.1.1 16.6 7.7 16.6 18.6zm-28.6.6c0 7.9 4.3 14.9 11.8 14.9 7.5 0 11.8-6.9 11.8-15.3 0-7.3-3.8-14.9-11.8-14.9-7.9 0-11.8 7.3-11.8 15.3zM62.7 43.8c0 2.7.1 5.1.2 7.2h-4.3l-.3-4.3h-.1c-1.3 2.1-4 4.9-8.8 4.9-4.2 0-9.1-2.3-9.1-11.6V24.6h4.8v14.6c0 5 1.5 8.4 5.9 8.4 3.2 0 5.5-2.2 6.3-4.4.3-.7.4-1.6.4-2.5V24.6h4.8v19.2zM67.3 32.8c0-3.1-.1-5.8-.2-8.2h4.2l.2 5.2h.2c1.2-3.5 4.1-5.8 7.3-5.8.5 0 .9.1 1.4.2v4.5c-.5-.1-1-.2-1.6-.2-3.4 0-5.8 2.6-6.5 6.2-.1.7-.2 1.4-.2 2.2V51h-4.8V32.8zM95.4 51L86 14.2h5l4.4 18.6c1.1 4.6 2.1 9.2 2.7 12.7h.1c.6-3.7 1.8-8 3-12.8l4.9-18.5h5l4.5 18.7c1 4.4 2 8.7 2.6 12.6h.1c.8-4 1.8-8.1 3-12.7l4.9-18.5h4.9L120.6 51h-5L111 31.9c-1.1-4.7-1.9-8.3-2.4-12h-.1c-.7 3.7-1.5 7.3-2.8 12L100.4 51h-5zM154.9 37.6c0 9.8-6.8 14-13.2 14-7.2 0-12.7-5.2-12.7-13.6 0-8.8 5.8-14 13.1-14 7.7 0 12.8 5.5 12.8 13.6zm-21 .3c0 5.8 3.3 10.1 8 10.1 4.6 0 8-4.3 8-10.3 0-4.5-2.2-10.1-7.9-10.1s-8.1 5.2-8.1 10.3zM158.2 32.8c0-3.1-.1-5.8-.2-8.2h4.2l.2 5.2h.2c1.2-3.5 4.1-5.8 7.3-5.8.5 0 .9.1 1.4.2v4.5c-.5-.1-1-.2-1.6-.2-3.4 0-5.8 2.6-6.5 6.2-.1.7-.2 1.4-.2 2.2V51h-4.8V32.8zM173.5 12.3h4.8V51h-4.8V12.3zM206.5 12.3v31.9c0 2.3.1 5 .2 6.8h-4.3l-.2-4.6h-.2c-1.5 2.9-4.7 5.2-9 5.2-6.4 0-11.3-5.4-11.3-13.4-.1-8.8 5.4-14.2 11.9-14.2 4 0 6.8 1.9 8 4h.1V12.3h4.8zm-4.8 23.1c0-.6-.1-1.4-.2-2a7 7 0 00-6.9-5.6c-5 0-7.9 4.4-7.9 10.2 0 5.3 2.6 9.8 7.8 9.8 3.2 0 6.2-2.1 7.1-5.7.2-.7.2-1.3.2-2.1v-4.6zM42.8 64c.1 1.6-1.1 2.9-3.1 2.9-1.7 0-2.9-1.3-2.9-2.9 0-1.7 1.3-3 3-3 1.9 0 3 1.3 3 3zm-5.4 33.8V71.4h4.8v26.4h-4.8zM47.5 78.6c0-2.7-.1-5-.2-7.1h4.3l.3 4.4h.1c1.3-2.5 4.4-5 8.8-5 3.7 0 9.4 2.2 9.4 11.2v15.8h-4.8V82.6c0-4.3-1.6-7.8-6.1-7.8-3.2 0-5.6 2.2-6.5 4.9-.2.6-.3 1.4-.3 2.2v15.9h-4.8V78.6zM84 61.6c2.9-.4 6.3-.8 10.1-.8 6.8 0 11.7 1.6 14.9 4.6 3.3 3 5.2 7.3 5.2 13.2 0 6-1.9 10.9-5.3 14.3-3.4 3.4-9.1 5.3-16.3 5.3-3.4 0-6.2-.2-8.6-.4V61.6zm4.8 32.5c1.2.2 3 .3 4.8.3 10.2 0 15.7-5.7 15.7-15.6.1-8.7-4.9-14.2-14.9-14.2-2.5 0-4.3.2-5.6.5v29zM132.1 97.8l-.4-3.3h-.2a9.79 9.79 0 01-8.1 3.9c-5.4 0-8.1-3.8-8.1-7.6 0-6.4 5.7-9.9 15.9-9.8v-.5c0-2.2-.6-6.1-6-6.1-2.5 0-5 .8-6.9 2l-1.1-3.2c2.2-1.4 5.4-2.3 8.7-2.3 8.1 0 10.1 5.5 10.1 10.8v9.9c0 2.3.1 4.5.4 6.3h-4.3zm-.7-13.4c-5.3-.1-11.2.8-11.2 5.9 0 3.1 2.1 4.6 4.5 4.6 3.4 0 5.6-2.2 6.4-4.4.2-.5.3-1 .3-1.5v-4.6zM146.6 63.9v7.6h6.9v3.7h-6.9v14.2c0 3.3.9 5.1 3.6 5.1 1.3 0 2.2-.2 2.8-.3l.2 3.6c-.9.4-2.4.7-4.3.7-2.2 0-4-.7-5.2-2-1.4-1.4-1.9-3.8-1.9-6.9V75.1h-4.1v-3.7h4.1v-6.3l4.8-1.2zM171.4 97.8l-.4-3.3h-.2a9.79 9.79 0 01-8.1 3.9c-5.4 0-8.1-3.8-8.1-7.6 0-6.4 5.7-9.9 15.9-9.8v-.5c0-2.2-.6-6.1-6-6.1-2.5 0-5 .8-6.9 2l-1.1-3.2c2.2-1.4 5.4-2.3 8.7-2.3 8.1 0 10.1 5.5 10.1 10.8v9.9c0 2.3.1 4.5.4 6.3h-4.3zm-.7-13.4c-5.3-.1-11.2.8-11.2 5.9 0 3.1 2.1 4.6 4.5 4.6 3.4 0 5.6-2.2 6.4-4.4.2-.5.3-1 .3-1.5v-4.6z"/></g></g></a></g><a href="https://ourworldindata.org/grapher/number-injured-from-disasters" target="_blank"><text font-size="27" x="15" y="36.6" fill="#555"><tspan x="15" y="36.6">Number injured from natural disasters, All natural disasters</tspan></text></a><text font-size="14.4" x="15" y="55.5" fill="#666"><tspan x="15" y="55.52">Global number of people injured from natural disaster events. This is defined as &quot;people suffering from physical</tspan><tspan x="15" y="71.36">injuries, trauma or an illness requiring immediate medical assistance as a direct result of a disaster.&quot;</tspan></text></g><g class="LineChart"><defs><clipPath id="a"><path d="M83.06 0h830v896h-830z"/></clipPath></defs><g class="AxisBoxView"><g class="HorizontalAxis" fill="#666" text-anchor="middle" font-size="16.2"><text x="93.1" y="541.9">1903</text><text x="181.2" y="541.9">1920</text><text x="284.9" y="541.9">1940</text><text x="388.5" y="541.9">1960</text><text x="492.2" y="541.9">1980</text><text x="595.9" y="541.9">2000</text><text x="684" y="541.9">2017</text></g><g class="VerticalAxis" fill="#666" dominant-baseline="middle" text-anchor="end" font-size="16.2"><text x="88.06" y="475.4">200,000</text><text x="88.06" y="430.1">400,000</text><text x="88.06" y="384.8">600,000</text><text x="88.06" y="339.5">800,000</text><text x="88.06" y="294.2">1 million</text><text x="88.06" y="248.9">1.2 million</text><text x="88.06" y="203.6">1.4 million</text><text x="88.06" y="158.3">1.6 million</text><text x="88.06" y="113">1.8 million</text></g><g class="AxisGridLines" stroke="#ddd" stroke-dasharray="3,2"><path d="M93.06 475.4H684M93.06 430.1H684M93.06 384.8H684M93.06 339.5H684M93.06 294.2H684M93.06 248.9H684M93.06 203.6H684M93.06 158.3H684M93.06 113H684"/></g><g class="AxisGridLines" stroke="#ddd" stroke-dasharray="3,2"><path d="M181.2 520.7V93.9M284.9 520.7V93.9M388.5 520.7V93.9M492.2 520.7V93.9M595.9 520.7V93.9"/></g></g><g clip-path="url(#a)"><g class="HeightedLegend clickable"><g class="legendMark"><path fill="#3360a9" d="M694 465.05h10v2.5h-10z"/><text font-size="14.4" x="709" y="470.6" fill="#333"><tspan x="709" y="470.62">All natural disasters</tspan></text></g></g><g class="Lines"><g class="key-All-natural-disasters_0"><path stroke="#3360a9" stroke-linecap="round" d="M93 521h42l5-1 10 1h31l16-24 21 24h5l5-1 5-1 5 2h5l11-1 5 1h16l5-14 15 14 5-2 6-6 20 6 6 2h10l5-1 5 1h5l6-1h10l5 1 11-7 10 6h10l5-140 6 138 5 1 5-23 5 20 5-30 6 34 5-4 5 1 5-1 5 4 6-61 5 55 5 4 5-1 5-8h5l6 4 5 5 5 1 5-8 5 2 6 6 5-7h5l5-19 5-33 5-14 6 64h5l5-16 5-45 5 59 6-25 5 12 5 22 5-59 5 51 5-35 6-380 5 391 5-3 5 22 5-73 6 79 5-157 5 156 5-3 5-13 5 3 6-14 5 3 5-19" fill="none" stroke-width="1.5"/><g fill="#3360a9"><circle cx="93" cy="521" r="2"/><circle cx="103" cy="521" r="2"/><circle cx="135" cy="521" r="2"/><circle cx="140" cy="520" r="2"/><circle cx="150" cy="521" r="2"/><circle cx="155" cy="521" r="2"/><circle cx="181" cy="521" r="2"/><circle cx="197" cy="497" r="2"/><circle cx="218" cy="521" r="2"/><circle cx="223" cy="521" r="2"/><circle cx="228" cy="520" r="2"/><circle cx="233" cy="519" r="2"/><circle cx="238" cy="521" r="2"/><circle cx="243" cy="521" r="2"/><circle cx="254" cy="520" r="2"/><circle cx="259" cy="521" r="2"/><circle cx="264" cy="521" r="2"/><circle cx="275" cy="521" r="2"/><circle cx="280" cy="507" r="2"/><circle cx="295" cy="521" r="2"/><circle cx="300" cy="519" r="2"/><circle cx="306" cy="513" r="2"/><circle cx="326" cy="519" r="2"/><circle cx="332" cy="521" r="2"/><circle cx="337" cy="521" r="2"/><circle cx="342" cy="521" r="2"/><circle cx="347" cy="520" r="2"/><circle cx="352" cy="521" r="2"/><circle cx="357" cy="521" r="2"/><circle cx="363" cy="520" r="2"/><circle cx="368" cy="520" r="2"/><circle cx="373" cy="520" r="2"/><circle cx="378" cy="521" r="2"/><circle cx="389" cy="514" r="2"/><circle cx="399" cy="520" r="2"/><circle cx="404" cy="520" r="2"/><circle cx="409" cy="520" r="2"/><circle cx="414" cy="380" r="2"/><circle cx="420" cy="518" r="2"/><circle cx="425" cy="519" r="2"/><circle cx="430" cy="496" r="2"/><circle cx="435" cy="516" r="2"/><circle cx="440" cy="486" r="2"/><circle cx="446" cy="520" r="2"/><circle cx="451" cy="516" r="2"/><circle cx="456" cy="517" r="2"/><circle cx="461" cy="516" r="2"/><circle cx="466" cy="520" r="2"/><circle cx="472" cy="459" r="2"/><circle cx="477" cy="514" r="2"/><circle cx="482" cy="518" r="2"/><circle cx="487" cy="517" r="2"/><circle cx="492" cy="509" r="2"/><circle cx="497" cy="509" r="2"/><circle cx="503" cy="513" r="2"/><circle cx="508" cy="518" r="2"/><circle cx="513" cy="519" r="2"/><circle cx="518" cy="511" r="2"/><circle cx="523" cy="513" r="2"/><circle cx="529" cy="519" r="2"/><circle cx="534" cy="512" r="2"/><circle cx="539" cy="512" r="2"/><circle cx="544" cy="493" r="2"/><circle cx="549" cy="460" r="2"/><circle cx="554" cy="446" r="2"/><circle cx="560" cy="510" r="2"/><circle cx="565" cy="510" r="2"/><circle cx="570" cy="494" r="2"/><circle cx="575" cy="449" r="2"/><circle cx="580" cy="508" r="2"/><circle cx="586" cy="483" r="2"/><circle cx="591" cy="495" r="2"/><circle cx="596" cy="517" r="2"/><circle cx="601" cy="458" r="2"/><circle cx="606" cy="509" r="2"/><circle cx="611" cy="474" r="2"/><circle cx="617" cy="94" r="2"/><circle cx="622" cy="485" r="2"/><circle cx="627" cy="482" r="2"/><circle cx="632" cy="504" r="2"/><circle cx="637" cy="431" r="2"/><circle cx="643" cy="510" r="2"/><circle cx="648" cy="353" r="2"/><circle cx="653" cy="509" r="2"/><circle cx="658" cy="506" r="2"/><circle cx="663" cy="493" r="2"/><circle cx="668" cy="496" r="2"/><circle cx="674" cy="482" r="2"/><circle cx="679" cy="485" r="2"/><circle cx="684" cy="466" r="2"/></g></g></g></g></g><g class="SourcesFooter" fill="#777"><g class="clickable" fill="#777"><text font-size="12.6" x="15" y="567"><tspan x="15" y="566.98">Source: EMDAT (2017): OFDA/CRED International Disaster Database, Université catholique de Louvain – Brussels – Belgium</tspan></text></g><text font-size="12.6" x="15" y="582.5"><tspan x="15" y="582.48"><a target="_blank" href="https://ourworldindata.org/natural-catastrophes/" fill="#777">OurWorldInData.org/natural-catastrophes/</a> • <a href="http://creativecommons.org/licenses/by-sa/4.0/deed.en_US" target="_blank" fill="#777">CC BY-SA</a></tspan></text></g></g></svg>

<svg xmlns="http://www.w3.org/2000/svg" version="1.1" style="font-family: 'Helvetica Neue', Helvetica, Arial, sans-serif; font-size: 18px; background-color: white; text-rendering: optimizeLegibility; -webkit-font-smoothing: antialiased;" width="850" height="600"><g class="ChartTab"><g class="HeaderView"><g opacity="0.8" transform="translate(770, 15) scale(0.31)"><a xmlns:xlink="http://www.w3.org/1999/xlink" xlink:href="https://ourworldindata.org" target="_blank"><g><rect x="0" y="0" fill="#1B2543" width="211.2" height="130.1"/><rect x="0" y="112.2" fill="#E63912" width="211.2" height="17.9"/><g><rect x="1.2" y="12.3" fill="none" width="210.2" height="99.2"/><path fill="#FFFFFF" d="M37.8,32.2c0,12.7-7.7,19.4-17.1,19.4c-9.7,0-16.6-7.5-16.6-18.7c0-11.7,7.3-19.3,17.1-19.3 C31.3,13.7,37.8,21.3,37.8,32.2z M9.2,32.8c0,7.9,4.3,14.9,11.8,14.9c7.5,0,11.8-6.9,11.8-15.3c0-7.3-3.8-14.9-11.8-14.9 C13.1,17.5,9.2,24.8,9.2,32.8z"/><path fill="#FFFFFF" d="M62.7,43.8c0,2.7,0.1,5.1,0.2,7.2h-4.3l-0.3-4.3h-0.1c-1.3,2.1-4,4.9-8.8,4.9c-4.2,0-9.1-2.3-9.1-11.6 V24.6h4.8v14.6c0,5,1.5,8.4,5.9,8.4c3.2,0,5.5-2.2,6.3-4.4c0.3-0.7,0.4-1.6,0.4-2.5V24.6h4.8V43.8z"/><path fill="#FFFFFF" d="M67.3,32.8c0-3.1-0.1-5.8-0.2-8.2h4.2l0.2,5.2h0.2c1.2-3.5,4.1-5.8,7.3-5.8c0.5,0,0.9,0.1,1.4,0.2v4.5 c-0.5-0.1-1-0.2-1.6-0.2c-3.4,0-5.8,2.6-6.5,6.2c-0.1,0.7-0.2,1.4-0.2,2.2V51h-4.8V32.8z"/><path fill="#FFFFFF" d="M95.4,51l-9.4-36.8h5l4.4,18.6c1.1,4.6,2.1,9.2,2.7,12.7h0.1c0.6-3.7,1.8-8,3-12.8l4.9-18.5h5l4.5,18.7 c1,4.4,2,8.7,2.6,12.6h0.1c0.8-4,1.8-8.1,3-12.7l4.9-18.5h4.9L120.6,51h-5L111,31.9c-1.1-4.7-1.9-8.3-2.4-12h-0.1 c-0.7,3.7-1.5,7.3-2.8,12L100.4,51H95.4z"/><path fill="#FFFFFF" d="M154.9,37.6c0,9.8-6.8,14-13.2,14c-7.2,0-12.7-5.2-12.7-13.6c0-8.8,5.8-14,13.1-14 C149.8,24,154.9,29.5,154.9,37.6z M133.9,37.9c0,5.8,3.3,10.1,8,10.1c4.6,0,8-4.3,8-10.3c0-4.5-2.2-10.1-7.9-10.1 C136.3,27.6,133.9,32.8,133.9,37.9z"/><path fill="#FFFFFF" d="M158.2,32.8c0-3.1-0.1-5.8-0.2-8.2h4.2l0.2,5.2h0.2c1.2-3.5,4.1-5.8,7.3-5.8c0.5,0,0.9,0.1,1.4,0.2v4.5 c-0.5-0.1-1-0.2-1.6-0.2c-3.4,0-5.8,2.6-6.5,6.2c-0.1,0.7-0.2,1.4-0.2,2.2V51h-4.8V32.8z"/><path fill="#FFFFFF" d="M173.5,12.3h4.8V51h-4.8V12.3z"/><path fill="#FFFFFF" d="M206.5,12.3v31.9c0,2.3,0.1,5,0.2,6.8h-4.3l-0.2-4.6H202c-1.5,2.9-4.7,5.2-9,5.2 c-6.4,0-11.3-5.4-11.3-13.4c-0.1-8.8,5.4-14.2,11.9-14.2c4,0,6.8,1.9,8,4h0.1V12.3H206.5z M201.7,35.4c0-0.6-0.1-1.4-0.2-2 c-0.7-3.1-3.3-5.6-6.9-5.6c-5,0-7.9,4.4-7.9,10.2c0,5.3,2.6,9.8,7.8,9.8c3.2,0,6.2-2.1,7.1-5.7c0.2-0.7,0.2-1.3,0.2-2.1V35.4z"/><path fill="#FFFFFF" d="M42.8,64c0.1,1.6-1.1,2.9-3.1,2.9c-1.7,0-2.9-1.3-2.9-2.9c0-1.7,1.3-3,3-3C41.7,61,42.8,62.3,42.8,64z M37.4,97.8V71.4h4.8v26.4H37.4z"/><path fill="#FFFFFF" d="M47.5,78.6c0-2.7-0.1-5-0.2-7.1h4.3l0.3,4.4h0.1c1.3-2.5,4.4-5,8.8-5c3.7,0,9.4,2.2,9.4,11.2v15.8h-4.8 V82.6c0-4.3-1.6-7.8-6.1-7.8c-3.2,0-5.6,2.2-6.5,4.9c-0.2,0.6-0.3,1.4-0.3,2.2v15.9h-4.8V78.6z"/><path fill="#FFFFFF" d="M84,61.6c2.9-0.4,6.3-0.8,10.1-0.8c6.8,0,11.7,1.6,14.9,4.6c3.3,3,5.2,7.3,5.2,13.2c0,6-1.9,10.9-5.3,14.3 c-3.4,3.4-9.1,5.3-16.3,5.3c-3.4,0-6.2-0.2-8.6-0.4V61.6z M88.8,94.1c1.2,0.2,3,0.3,4.8,0.3c10.2,0,15.7-5.7,15.7-15.6 c0.1-8.7-4.9-14.2-14.9-14.2c-2.5,0-4.3,0.2-5.6,0.5V94.1z"/><path fill="#FFFFFF" d="M132.1,97.8l-0.4-3.3h-0.2c-1.5,2.1-4.3,3.9-8.1,3.9c-5.4,0-8.1-3.8-8.1-7.6c0-6.4,5.7-9.9,15.9-9.8v-0.5 c0-2.2-0.6-6.1-6-6.1c-2.5,0-5,0.8-6.9,2l-1.1-3.2c2.2-1.4,5.4-2.3,8.7-2.3c8.1,0,10.1,5.5,10.1,10.8v9.9c0,2.3,0.1,4.5,0.4,6.3 H132.1z M131.4,84.4c-5.3-0.1-11.2,0.8-11.2,5.9c0,3.1,2.1,4.6,4.5,4.6c3.4,0,5.6-2.2,6.4-4.4c0.2-0.5,0.3-1,0.3-1.5V84.4z"/><path fill="#FFFFFF" d="M146.6,63.9v7.6h6.9v3.7h-6.9v14.2c0,3.3,0.9,5.1,3.6,5.1c1.3,0,2.2-0.2,2.8-0.3l0.2,3.6 c-0.9,0.4-2.4,0.7-4.3,0.7c-2.2,0-4-0.7-5.2-2c-1.4-1.4-1.9-3.8-1.9-6.9V75.1h-4.1v-3.7h4.1v-6.3L146.6,63.9z"/><path fill="#FFFFFF" d="M171.4,97.8l-0.4-3.3h-0.2c-1.5,2.1-4.3,3.9-8.1,3.9c-5.4,0-8.1-3.8-8.1-7.6c0-6.4,5.7-9.9,15.9-9.8v-0.5 c0-2.2-0.6-6.1-6-6.1c-2.5,0-5,0.8-6.9,2l-1.1-3.2c2.2-1.4,5.4-2.3,8.7-2.3c8.1,0,10.1,5.5,10.1,10.8v9.9c0,2.3,0.1,4.5,0.4,6.3 H171.4z M170.7,84.4c-5.3-0.1-11.2,0.8-11.2,5.9c0,3.1,2.1,4.6,4.5,4.6c3.4,0,5.6-2.2,6.4-4.4c0.2-0.5,0.3-1,0.3-1.5V84.4z"/></g></g></a></g><a href="https://ourworldindata.org/grapher/number-injured-from-disasters" target="_blank"><text font-size="27.00" x="15.0" y="36.6" fill="#555"><tspan x="15" y="36.6">Number injured from natural disasters, All natural disasters</tspan></text></a><text font-size="14.40" x="15.0" y="55.5" fill="#666"><tspan x="15" y="55.519999999999996">Global number of people injured from natural disaster events. This is defined as &quot;people suffering from physical</tspan><tspan x="15" y="71.36">injuries, trauma or an illness requiring immediate medical assistance as a direct result of a disaster.&quot;
</tspan></text></g><g class="LineChart"><defs><clipPath id="boundsClip-374"><rect x="83.062" y="0" width="830" height="896"></rect></clipPath></defs><g class="AxisBoxView"><g class="HorizontalAxis"><text x="93.1" y="541.9" fill="#666" text-anchor="middle" font-size="16.2">1903</text><text x="181.2" y="541.9" fill="#666" text-anchor="middle" font-size="16.2">1920</text><text x="284.9" y="541.9" fill="#666" text-anchor="middle" font-size="16.2">1940</text><text x="388.5" y="541.9" fill="#666" text-anchor="middle" font-size="16.2">1960</text><text x="492.2" y="541.9" fill="#666" text-anchor="middle" font-size="16.2">1980</text><text x="595.9" y="541.9" fill="#666" text-anchor="middle" font-size="16.2">2000</text><text x="684" y="541.9" fill="#666" text-anchor="middle" font-size="16.2">2017</text></g><g class="VerticalAxis"><text x="88.06" y="475.4" fill="#666" dominant-baseline="middle" text-anchor="end" font-size="16.2">200,000</text><text x="88.06" y="430.1" fill="#666" dominant-baseline="middle" text-anchor="end" font-size="16.2">400,000</text><text x="88.06" y="384.8" fill="#666" dominant-baseline="middle" text-anchor="end" font-size="16.2">600,000</text><text x="88.06" y="339.5" fill="#666" dominant-baseline="middle" text-anchor="end" font-size="16.2">800,000</text><text x="88.06" y="294.2" fill="#666" dominant-baseline="middle" text-anchor="end" font-size="16.2">1 million</text><text x="88.06" y="248.9" fill="#666" dominant-baseline="middle" text-anchor="end" font-size="16.2">1.2 million</text><text x="88.06" y="203.6" fill="#666" dominant-baseline="middle" text-anchor="end" font-size="16.2">1.4 million</text><text x="88.06" y="158.3" fill="#666" dominant-baseline="middle" text-anchor="end" font-size="16.2">1.6 million</text><text x="88.06" y="113" fill="#666" dominant-baseline="middle" text-anchor="end" font-size="16.2">1.8 million</text></g><g class="AxisGridLines"><line x1="93.06" y1="475.4" x2="684.00" y2="475.4" stroke="#ddd" stroke-dasharray="3,2"></line><line x1="93.06" y1="430.1" x2="684.00" y2="430.1" stroke="#ddd" stroke-dasharray="3,2"></line><line x1="93.06" y1="384.8" x2="684.00" y2="384.8" stroke="#ddd" stroke-dasharray="3,2"></line><line x1="93.06" y1="339.5" x2="684.00" y2="339.5" stroke="#ddd" stroke-dasharray="3,2"></line><line x1="93.06" y1="294.2" x2="684.00" y2="294.2" stroke="#ddd" stroke-dasharray="3,2"></line><line x1="93.06" y1="248.9" x2="684.00" y2="248.9" stroke="#ddd" stroke-dasharray="3,2"></line><line x1="93.06" y1="203.6" x2="684.00" y2="203.6" stroke="#ddd" stroke-dasharray="3,2"></line><line x1="93.06" y1="158.3" x2="684.00" y2="158.3" stroke="#ddd" stroke-dasharray="3,2"></line><line x1="93.06" y1="113" x2="684.00" y2="113" stroke="#ddd" stroke-dasharray="3,2"></line></g><g class="AxisGridLines"><line x1="181.2" y1="520.70" x2="181.2" y2="93.90" stroke="#ddd" stroke-dasharray="3,2"></line><line x1="284.9" y1="520.70" x2="284.9" y2="93.90" stroke="#ddd" stroke-dasharray="3,2"></line><line x1="388.5" y1="520.70" x2="388.5" y2="93.90" stroke="#ddd" stroke-dasharray="3,2"></line><line x1="492.2" y1="520.70" x2="492.2" y2="93.90" stroke="#ddd" stroke-dasharray="3,2"></line><line x1="595.9" y1="520.70" x2="595.9" y2="93.90" stroke="#ddd" stroke-dasharray="3,2"></line></g></g><g clip-path="url(#boundsClip-374)"><g class="HeightedLegend clickable"><g class="legendMark"><rect x="694" y="459.1" width="141" height="14.4" fill="#fff" opacity="0"></rect><rect x="694" y="465.05" width="10" height="2.5" fill="#3360a9"></rect><text font-size="14.40" x="709.0" y="470.6" fill="#333"><tspan x="709" y="470.62">All natural disasters</tspan></text></g></g><g class="Lines"><rect x="93" y="94" width="591" height="427" fill="rgba(255,255,255,0)" opacity="0"></rect><g class="key-All-natural-disasters_0"><path stroke="#3360a9" stroke-linecap="round" d="M93 521L103 521L135 521L140 520L150 521L155 521L181 521L197 497L218 521L223 521L228 520L233 519L238 521L243 521L254 520L259 521L264 521L275 521L280 507L295 521L300 519L306 513L326 519L332 521L337 521L342 521L347 520L352 521L357 521L363 520L368 520L373 520L378 521L389 514L399 520L404 520L409 520L414 380L420 518L425 519L430 496L435 516L440 486L446 520L451 516L456 517L461 516L466 520L472 459L477 514L482 518L487 517L492 509L497 509L503 513L508 518L513 519L518 511L523 513L529 519L534 512L539 512L544 493L549 460L554 446L560 510L565 510L570 494L575 449L580 508L586 483L591 495L596 517L601 458L606 509L611 474L617 94L622 485L627 482L632 504L637 431L643 510L648 353L653 509L658 506L663 493L668 496L674 482L679 485L684 466" fill="none" stroke-width="1.5"></path><g fill="#3360a9"><circle cx="93" cy="521" r="2"></circle><circle cx="103" cy="521" r="2"></circle><circle cx="135" cy="521" r="2"></circle><circle cx="140" cy="520" r="2"></circle><circle cx="150" cy="521" r="2"></circle><circle cx="155" cy="521" r="2"></circle><circle cx="181" cy="521" r="2"></circle><circle cx="197" cy="497" r="2"></circle><circle cx="218" cy="521" r="2"></circle><circle cx="223" cy="521" r="2"></circle><circle cx="228" cy="520" r="2"></circle><circle cx="233" cy="519" r="2"></circle><circle cx="238" cy="521" r="2"></circle><circle cx="243" cy="521" r="2"></circle><circle cx="254" cy="520" r="2"></circle><circle cx="259" cy="521" r="2"></circle><circle cx="264" cy="521" r="2"></circle><circle cx="275" cy="521" r="2"></circle><circle cx="280" cy="507" r="2"></circle><circle cx="295" cy="521" r="2"></circle><circle cx="300" cy="519" r="2"></circle><circle cx="306" cy="513" r="2"></circle><circle cx="326" cy="519" r="2"></circle><circle cx="332" cy="521" r="2"></circle><circle cx="337" cy="521" r="2"></circle><circle cx="342" cy="521" r="2"></circle><circle cx="347" cy="520" r="2"></circle><circle cx="352" cy="521" r="2"></circle><circle cx="357" cy="521" r="2"></circle><circle cx="363" cy="520" r="2"></circle><circle cx="368" cy="520" r="2"></circle><circle cx="373" cy="520" r="2"></circle><circle cx="378" cy="521" r="2"></circle><circle cx="389" cy="514" r="2"></circle><circle cx="399" cy="520" r="2"></circle><circle cx="404" cy="520" r="2"></circle><circle cx="409" cy="520" r="2"></circle><circle cx="414" cy="380" r="2"></circle><circle cx="420" cy="518" r="2"></circle><circle cx="425" cy="519" r="2"></circle><circle cx="430" cy="496" r="2"></circle><circle cx="435" cy="516" r="2"></circle><circle cx="440" cy="486" r="2"></circle><circle cx="446" cy="520" r="2"></circle><circle cx="451" cy="516" r="2"></circle><circle cx="456" cy="517" r="2"></circle><circle cx="461" cy="516" r="2"></circle><circle cx="466" cy="520" r="2"></circle><circle cx="472" cy="459" r="2"></circle><circle cx="477" cy="514" r="2"></circle><circle cx="482" cy="518" r="2"></circle><circle cx="487" cy="517" r="2"></circle><circle cx="492" cy="509" r="2"></circle><circle cx="497" cy="509" r="2"></circle><circle cx="503" cy="513" r="2"></circle><circle cx="508" cy="518" r="2"></circle><circle cx="513" cy="519" r="2"></circle><circle cx="518" cy="511" r="2"></circle><circle cx="523" cy="513" r="2"></circle><circle cx="529" cy="519" r="2"></circle><circle cx="534" cy="512" r="2"></circle><circle cx="539" cy="512" r="2"></circle><circle cx="544" cy="493" r="2"></circle><circle cx="549" cy="460" r="2"></circle><circle cx="554" cy="446" r="2"></circle><circle cx="560" cy="510" r="2"></circle><circle cx="565" cy="510" r="2"></circle><circle cx="570" cy="494" r="2"></circle><circle cx="575" cy="449" r="2"></circle><circle cx="580" cy="508" r="2"></circle><circle cx="586" cy="483" r="2"></circle><circle cx="591" cy="495" r="2"></circle><circle cx="596" cy="517" r="2"></circle><circle cx="601" cy="458" r="2"></circle><circle cx="606" cy="509" r="2"></circle><circle cx="611" cy="474" r="2"></circle><circle cx="617" cy="94" r="2"></circle><circle cx="622" cy="485" r="2"></circle><circle cx="627" cy="482" r="2"></circle><circle cx="632" cy="504" r="2"></circle><circle cx="637" cy="431" r="2"></circle><circle cx="643" cy="510" r="2"></circle><circle cx="648" cy="353" r="2"></circle><circle cx="653" cy="509" r="2"></circle><circle cx="658" cy="506" r="2"></circle><circle cx="663" cy="493" r="2"></circle><circle cx="668" cy="496" r="2"></circle><circle cx="674" cy="482" r="2"></circle><circle cx="679" cy="485" r="2"></circle><circle cx="684" cy="466" r="2"></circle></g></g></g></g></g><g style="fill: #777;" class="SourcesFooter"><g style="fill: #777;" class="clickable"><text font-size="12.60" x="15.0" y="567.0"><tspan x="15" y="566.98">Source: EMDAT (2017): OFDA/CRED International Disaster Database, Université catholique de Louvain – Brussels – Belgium</tspan></text></g><text font-size="12.60" x="15.0" y="582.5"><tspan x="15" y="582.48"><a target='_blank' style='fill: #777;' href='https://ourworldindata.org/natural-catastrophes/'>OurWorldInData.org/natural-catastrophes/</a> • <a style="fill: #777;" href="http://creativecommons.org/licenses/by-sa/4.0/deed.en_US" target="_blank">CC BY-SA</a></tspan></text></g></g></svg>
